X:17916
T:Turnpike Gate, The
T:Killannan's Fancy
T:Moving Bogs, The
R:reel
D:Frankie Gavin & Alec Finn
Z:id:hn-reel-705
M:C|
K:G
GEDE G3B|ADED ADED|GEDE G2 (3Bcd|egdB AcBA|
GEDE GABG|AD (3FED AD (3FED|GEDE GABd|eBdB G2Bd||
~g3b ~a3b|gabg agef|gfgb ~a3b|gabg agef|
~g3b agab|gabg aged|Beef edBd|gedB AcBA||
